X: 25334
T: Manus Lunny's Terracotta Plower Pop
R: jig
M: 6/8
K: Gmajor
D3 DEG|B2d BAG|G2g edB|deg b2a|
age ggg|edB deg|age geB|1 dBA A2B:|2 dBA GFE||
DDD A2B|cBA BGE|DDD A2F|GEA GEA|
DDD A2B|cBA BGE|GGG GEA|1 DDD D3:|2 DED DBc||

